X: 35762
T: Sally Ann's
R: reel
M: 4/4
K: Gmajor
ef|:"G"g2 ga g2 d2|"C"e2 ed e2ef|"D"e2 d2 BAB2|"G"d3 dd2 fg|
"C"e2 d2 "G"B2 G2|"D"A3 AA2 AB|BGAG E2 D2|1 "G" G3 GG2 ef:|2 "G"G3 GG2 D2||
|:"G"DABd B2 G2|"D"A3 AA2 A2|ABAG E2 D2|"G"G3 GG2 D2|
DABd B2 G2|"D"A3 AA2 A2|ABAG E2 D2|"G"G3 GG4:|

